X: 13763
T: Forgotten, The
R: jig
M: 6/8
K: Dmajor
|:dFF FGA|AGF FGE|dAA FGA|dAe fed|dFF FGA|
AGF GEB|1 ~A3 AB/c/d|e2f edc:|2 ~B3 BGB|fed cde||
|:~B3 Bcd|cBA Ace|~d3 def|gfe fed|
~B3 Bcd|cBA BAE|F2 G2 AB|1 dee dBA:|2 dee dc/B/A||

